X: 3062
T: The NINE PINT COGGIE
Q:"Reel."
R: Reel.
%R:reel
B: James Kerr "Merry Melodies" v.3 p.9 #62
Z: 2016 John Chambers <jc:trillian.mit.edu>
M: C
L: 1/8
K: G
ug |\
B>G G/G/G G2DE | =F2(cF) Accd |\
B>G G/G/G G2DE | G2(gd) Bdd ::\
e |\
gagd Bcde | =fgfc Accd |\
(d/c/B) (c/B/A) G2(DE) | G2(gd) Bdd :|

%%sep 1 1 500
%%sep 1 1 500

